X: 24705
T: MacPherson's Rant
R: reel
M: 4/4
K: Bminor
dGGG dGBg|dGGG d2cd|eAAA AGAB|Aaga e2dB|
efge aege|dBAB d2fg|aefd e2dB|AABd e2ef||
g2dg Bgdg|Bgdg e2dB|Aaag agea|Aaga e2dB|
efge aege|dBAB d2fg|aefd e2dB|AABd e4||

